X: 39
T:Lady Mary Ramsay
M:4/4
L:1/8
C:Nathaniel Gow
R:Strathspey
K:D
A,2|"D"D2 D>B A<FF>B|"D"A<F"G"B>G "D"A<FF<d|"D"D2 D>B A<FF>A||
"G"(3Bcd "D"(3AGF "A"E2 E<A|!
"D"D2 D>B A<FF>B|"D"A<F"G"B>G "D"A<FF<d|"D"D2 D>B A<FF>A|
"G"(3Bcd "D"(3AGF "A"E3||!
g|"D"f>ed>B "A"e>cA>c|"G"d>c B<d "D"A>FD>g|"D"f>ed>B "A"e>cA>c|
"G"(3dcB (3AGF "A"E2 E>g|!
"D"f>ed>B "A"e>cA>c|"G"d>c B<d "D"A<FD>c|"D"3)def edc "Bm"dcB 3)AGF|"G"G
